assets/icons/informations/leaderboard_fill.svg

<svg viewBox="0 0 24 24" xmlns="http://www.w3.org/2000/svg">
<path d="M3.5 21C3.1 21 2.75 20.85 2.45 20.55C2.15 20.25 2 19.9 2 19.5V4.5C2 4.1 2.15 3.75 2.45 3.45C2.75 3.15 3.1 3 3.5 3H20.9C21.3 3 21.65 3.15 21.95 3.45C22.25 3.75 22.4 4.1 22.4 4.5V19.5C22.4 19.9 22.25 20.25 21.95 20.55C21.65 20.85 21.3 21 20.9 21H3.5ZM5.2 17H10.2V15H5.2V17ZM14.75 15L19.7 10.05L18.275 8.625L14.75 12.175L13.325 10.75L11.925 12.175L14.75 15ZM5.2 13H10.2V11H5.2V13ZM5.2 9H10.2V7H5.2V9Z" fill="inherit"/>
</svg>

<svg viewBox="0 0 24 24" xmlns="http://www.w3.org/2000/svg"><path d="M3.5 21c-.4 0-.8-.1-1-.4-.4-.4-.5-.7-.5-1.1v-15c0-.4.1-.8.5-1 .3-.4.6-.5 1-.5h17.4c.4 0 .8.1 1 .5.4.3.5.6.5 1v15c0 .4-.1.8-.4 1-.4.4-.7.5-1.1.5H3.5Zm1.7-4h5v-2h-5v2Zm9.6-2 4.9-5-1.4-1.4-3.6 3.6-1.4-1.4-1.4 1.4 2.8 2.8Zm-9.6-2h5v-2h-5v2Zm0-4h5V7h-5v2Z" fill="inherit"/></svg>
